apps/common/main/resources/img/toolbar/2.5x/btn-eyedropper.svg

<svg width="20" height="20" viewBox="0 0 20 20" fill="none" xmlns="http://www.w3.org/2000/svg">
<path fill-rule="evenodd" clip-rule="evenodd" d="M13.182 4.49008C13.963 3.70903 15.2294 3.70903 16.0104 4.49008C16.7915 5.27113 16.7915 6.53746 16.0104 7.31851L13.1824 10.1465L14.5962 11.5604L13.8891 12.2675L12.4751 10.8534L12.4749 10.8536L8.23228 15.0962L6.11096 15.8033L5.40385 16.5104L4.69675 17.2176L3.98964 16.5104L3.28253 15.8033L3.98964 15.0962L4.69675 14.3891L5.40385 12.2678L9.6464 8.02526L8.23225 6.6111L8.93935 5.90399L10.3535 7.31815L10.3536 7.31806L10.3538 7.31827L13.182 4.49008ZM5.64543 14.7054L6.27788 12.808L10.3536 8.73227L11.7678 10.1465L7.6921 14.2222L5.79473 14.8547L5.57078 14.9293L5.64543 14.7054Z" fill="black"/>
</svg>

<svg xmlns="http://www.w3.org/2000/svg" width="20" height="20" fill="none"><path fill="#000" d="M13.182 4.49a2 2 0 1 1 2.828 2.83l-2.828 2.828 1.414 1.414-.707.707-1.414-1.414-4.242 4.243-2.122.707-1.414 1.414-1.414-1.414 1.414-1.415.707-2.121 4.243-4.242-1.414-1.414.707-.707 1.414 1.414 2.828-2.828Zm-6.904 8.318-.707 2.121 2.122-.707 4.075-4.075-1.414-1.414-4.076 4.075Z"/></svg>
